X:219
T:Reel 219
M:4/4
K:Gmaj
L:1/8
d>B (3BGB d>B (3BAB |c>A (3AAA e>A (3ABc |A>f (3AGF G>A (3AGA |c>A (3ABA a>gfge:||2 (3fed e>f  (3gfe dcBA|G>G (3GFG g2g2|d>G (3GGG g2 (3GFG |A>F (3AGA e>A (3AAA |g>G (3GGG G>G (3BAG |FAFA dcBABcA:||2BAGA  (3Bcd e>f (3gfe |d>B (3GBB g2f2| (3def ge fgdB|G>B (3BAB g2fd| (3efe fa gfge|dcBA  (3cBA  (3fed || (3efg dB cABG|
